X:193
T:Polska efter C A Lindblom
R:sl\"angpolska
H:jfr #95, #130, #178
A:\"Osterg\"otland
B:Version 1: C A Lindblom 2
B:Version 2: W{\ae}nerbergs samling, Sumlen 1976
Z:id:hn-sp-193
M:3/4
L:1/16
K:D
d2d2 f2d2 f2d2 | f2f2 a2f2 a2f2 | a2a2 g2g2 f2f2 | e2dc d4 D4 :|
|: f4 e2e2 e2e2 | f2ed e2e2 e2e2 | f2ef g4 f4 | e2dc d4 D4 :|
P:version 2
K:A
|: A2AB c2A2 c2A2 | c2cd e2c2 e2c2 | e2e2 a4 e2d2 | c2B2 A4 A2z2 :|
|: c2c2 B2B2 B2B2 | c2c2 B2B2 B2B2 | c2c2 d2d2 c2c2 | B2B2 A4 A2z2 :|
<end>
<start>
